X: 4
T: Biddy Barry's
M: 4/4
L: 1/8
R: barndance / schottische
K: GMaj
|: DF |\
GBDF GB D2 | G2 B^A B2 AG | FA D2 FA D2 | F2 A^G A2 GF |
GB D2 GBDF | G2 B2 B2 AB | cBAG F2 DF | A2 G2 G2 :|
|: Bc |\
d2 g2 g2 fe | d2 B2 B2 AB | c2 e^d e2 =dc | B2 GF GABc |
d2 gf g2 fe | d2 B^A B2 AB |[1 cBAG FAdc | BAGF GA :|
[2 c2 BG FADF | G2 d2 G2 |]
